flaticon/transportation/car-7.svg

<svg xmlns="http://www.w3.org/2000/svg" width="32" height="32" viewBox="0 0 24 24">
    <path d="M 24 15.359375 C 24 11.683594 21.101562 8.632812 17.472656 8.394531 C 16.292969 5.277344 13.320312 3.207031 9.960938 3.207031 C 6.496094 3.207031 3.476562 5.375 2.363281 8.632812 C 0.941406 9.191406 0 10.554688 0 12.105469 L 0 17.8125 L 3.097656 17.8125 C 3.347656 19.496094 4.800781 20.792969 6.550781 20.792969 C 8.300781 20.792969 9.753906 19.496094 10.003906 17.8125 L 13.964844 17.8125 C 14.214844 19.496094 15.667969 20.792969 17.417969 20.792969 C 19.167969 20.792969 20.621094 19.496094 20.871094 17.8125 L 24 17.8125 Z M 6.550781 19.773438 C 5.1875 19.773438 4.082031 18.664062 4.082031 17.300781 C 4.082031 15.941406 5.1875 14.832031 6.550781 14.832031 C 7.914062 14.832031 9.019531 15.941406 9.019531 17.300781 C 9.019531 18.664062 7.914062 19.773438 6.550781 19.773438 Z M 17.417969 19.773438 C 16.054688 19.773438 14.949219 18.664062 14.949219 17.300781 C 14.949219 15.941406 16.054688 14.832031 17.417969 14.832031 C 18.78125 14.832031 19.886719 15.941406 19.886719 17.300781 C 19.886719 18.664062 18.78125 19.773438 17.417969 19.773438 Z M 22.980469 16.792969 L 20.871094 16.792969 C 20.621094 15.109375 19.167969 13.8125 17.417969 13.8125 C 15.667969 13.8125 14.214844 15.109375 13.964844 16.792969 L 10.003906 16.792969 C 9.753906 15.109375 8.300781 13.8125 6.550781 13.8125 C 4.800781 13.8125 3.347656 15.109375 3.097656 16.792969 L 1.019531 16.792969 L 1.019531 12.105469 C 1.019531 9.894531 3.183594 9.4375 3.183594 9.4375 C 3.183594 9.4375 4.519531 4.226562 9.960938 4.226562 C 15.449219 4.226562 16.734375 9.394531 16.734375 9.394531 C 16.734375 9.394531 22.632812 9.195312 22.980469 15.359375 Z M 22.980469 16.792969"/>
    <path d="M9.761719 5.292969C5.132812 5.292969 4.410156 9.664062 4.410156 9.664062L15.109375 9.664062C15.109375 9.664062 14.371094 5.292969 9.761719 5.292969zM5.820312 8.640625C6.511719 7.242188 8.039062 6.3125 9.761719 6.3125 11.480469 6.3125 13.007812 7.242188 13.699219 8.640625zM17.425781 16.589844L18.132812 17.292969 17.410156 18.015625 16.703125 17.3125zM5.835938 17.3125L6.542969 18.015625 7.265625 17.292969 6.558594 16.589844zM5.835938 17.3125"/>
</svg>

<svg xmlns="http://www.w3.org/2000/svg" width="32" height="32" viewBox="0 0 24 24">
    <path d="M24 15.36c0-3.676-2.898-6.727-6.527-6.965A8.016 8.016 0 0 0 9.96 3.207a7.985 7.985 0 0 0-7.598 5.426A3.717 3.717 0 0 0 0 12.105v5.707h3.098a3.499 3.499 0 0 0 3.453 2.981 3.499 3.499 0 0 0 3.453-2.98h3.96a3.499 3.499 0 0 0 3.454 2.98 3.499 3.499 0 0 0 3.453-2.98H24zM6.55 19.772a2.471 2.471 0 0 1 0-4.941 2.471 2.471 0 0 1 0 4.941zm10.868 0a2.471 2.471 0 0 1 0-4.941 2.471 2.471 0 0 1 0 4.941zm5.562-2.98h-2.109a3.499 3.499 0 0 0-3.453-2.98 3.499 3.499 0 0 0-3.453 2.98h-3.961a3.499 3.499 0 0 0-3.453-2.98 3.499 3.499 0 0 0-3.453 2.98H1.02v-4.688c0-2.21 2.164-2.668 2.164-2.668s1.336-5.21 6.777-5.21c5.488 0 6.773 5.168 6.773 5.168s5.899-.2 6.246 5.964zm0 0"/>
    <path d="M9.762 5.293c-4.63 0-5.352 4.371-5.352 4.371h10.7s-.739-4.371-5.348-4.371zM5.82 8.641c.692-1.399 2.22-2.329 3.942-2.329 1.718 0 3.246.93 3.937 2.329zm0 0M17.426 16.59l.707.703-.723.723-.707-.703zm-11.59.723l.707.703.723-.723-.707-.703zm0 0"/>
</svg>
